X: 131
T: Missa Sine nomine I / Agnus Dei
N: Derived from Rue1028e-Missa_Sine_nomine_I-Agnus.krn
C: Pierre de la Rue
%%abc-version 2.0
%%abcx-abcm2ps-target-version 5.9.1 (29 Sep 2008)
%%abc-creator hum2abc beta
%%abcx-conversion-date 2019/02/17 08:01:15
%%abc-edited-by Jesse Rodin
%%abc-edited-by Chris Gage 6/10/2013
%%abcx-initial-encoding-date 2013/08/05/
%%humdrum-veritas 2677043477
%%humdrum-veritas-data 4034748571
%%linebreak <none>
%%barnumbers 0
L: 1/4
M: 2/1
Q: 1/2=120
%%staves [1 2 3 4]
V: 1 clef=treble
V: 2 clef=treble-8
V: 3 clef=treble-8
V: 4 clef=bass
K: F
[V:1] z8 | 
[V:2] z8 | 
[V:3] G8 | 
[V:4] G,6F,E, | 
[V:1] z8 | 
[V:2] z8 | 
[V:3] B4c4 | 
[V:4] D,2_E,4D,C, | 
[V:1] z8 | 
[V:2] z8 | 
[V:3] d6cB | 
[V:4] B,,8 | 
[V:1] z8 | 
[V:2] z8 | 
[V:3] A2B4AG | 
[V:4] C,2D,4C,B,, | 
[V:1] z8 | 
[V:2] z8 | 
[V:3] F2B4A2 | 
[V:4] A,,2B,,2C,4 | 
[V:1] G8 | 
[V:2] z8 | 
[V:3] B2d4c2- | 
[V:4] B,,2G,,2B,,3C, | 
[V:1] B4c4 | 
[V:2] z8 | 
[V:3] cBB4A2 | 
[V:4] D,2_E,2C,4 | 
[V:1] d6cB | 
[V:2] f6ed | 
[V:3] B8 | 
[V:4] B,,8 | 
[V:1] A2B4AG | 
[V:2] c2d4cB | 
[V:3] z4B4- | 
[V:4] z4B,,4- | 
[V:1] F2B4A2 | 
[V:2] f8 | 
[V:3] B4c4 | 
[V:4] B,,4F,4 | 
[V:1] B2d4c2- | 
[V:2] f4g4 | 
[V:3] d4d2e2- | 
[V:4] B,,2B,3G,C2 | 
[V:1] cBB4A2 | 
[V:2] f8 | 
[V:3] edB2c4 | 
[V:4] A,2B,2F,4 | 
[V:1] B4z2B2 | 
[V:2] f6ed | 
[V:3] B8 | 
[V:4] B,,8 | 
[V:1] A2c3BA2 | 
[V:2] c4f4 | 
[V:3] z8 | 
[V:4] F,8 | 
[V:1] G2B4A2- | 
[V:2] e2d4c2- | 
[V:3] z8 | 
[V:4] G,3A,B,2F,2- | 
[V:1] A2G2A4- | 
[V:2] cBG2F4 | 
[V:3] c6A2 | 
[V:4] F,2E,2F,4- | 
[V:1] A2F2F4 | 
[V:2] f6d2 | 
[V:3] A4A2B2- | 
[V:4] F,2D,2D,4 | 
[V:1] z2F2G2B2- | 
[V:2] d4z2Bc | 
[V:3] B2A2B2d2- | 
[V:4] z2D,2G,3A, | 
[V:1] B2A3GG2 | 
[V:2] def4e2 | 
[V:3] d2c3AB2 | 
[V:4] B,2F,2G,4 | 
[V:1] A4A2c2- | 
[V:2] f6ed | 
[V:3] c4c2A2- | 
[V:4] F,8 | 
[V:1] cdB2A4 | 
[V:2] c2f4f2- | 
[V:3] A2d4c2- | 
[V:4] z4z2F,2 | 
[V:1] z2G2A3c | 
[V:2] f2e2f4 | 
[V:3] c2B2c4 | 
[V:4] G,4F,4 | 
[V:1] B4A4 | 
[V:2] z4z2f2- | 
[V:3] z2B2c2A2 | 
[V:4] G,4A,2F,2 | 
[V:1] z2B2c2A2 | 
[V:2] f2edc2f2- | 
[V:3] B3cA4 | 
[V:4] G,4z2F,2 | 
[V:1] B3cA4 | 
[V:2] f2B2f3g | 
[V:3] z2d4c2 | 
[V:4] G,4z2F,2 | 
[V:1] z8 | 
[V:2] e2f4e2 | 
[V:3] B2A3Bc2 | 
[V:4] G,2D,4C,2 | 
[V:1] z2d3cc2 | 
[V:2] f2d2e4 | 
[V:3] B2A2A4 | 
[V:4] D,4A,,4 | 
[V:1] d2A2B3c | 
[V:2] defe/f/g4 | 
[V:3] z4z2G2 | 
[V:4] z2A,2G,2E,2 | 
[V:1] A4A2c2- | 
[V:2] c4z2f2- | 
[V:3] AGABc4 | 
[V:4] F,4F,2A,2- | 
[V:1] cBG2AGAB | 
[V:2] f2e2f2f2 | 
[V:3] A2B2cBcd | 
[V:4] A,2G,2F,3E, | 
[V:1] c4B2A2- | 
[V:2] g4g2_e2- | 
[V:3] _e4d2c2- | 
[V:4] C,D,_E,F,G,2C,2 | 
[V:1] A2G3^FF2 | 
[V:2] e2c2d4 | 
[V:3] cBG2A4 | 
[V:4] _E,4D,4 | 
[V:1] G8 ||  
[V:2] d8 ||  
[V:3] G8 ||  
[V:4] G,,8 ||  
[V:1]  [K:F] [K:clef=treble][M:2/1]G4d4- | 
[V:2]  [K:F] [K:clef=treble-8][M:2/1]z4G4 | 
[V:3]  [K:F] [K:clef=treble-8][M:2/1]z8 | 
[V:4]  [K:F] [K:clef=bass][M:2/1]z8 | 
[V:1] d2c2B2A2 | 
[V:2] d6c2 | 
[V:3] z8 | 
[V:4] z8 | 
[V:1] B2c2d3c | 
[V:2] B2A2B2c2 | 
[V:3] z8 | 
[V:4] z8 | 
[V:1] A2B2cBAG | 
[V:2] d4_e3d | 
[V:3] z8 | 
[V:4] z8 | 
[V:1] B3AFGA2- | 
[V:2] Bcd3cAB | 
[V:3] z8 | 
[V:4] z8 | 
[V:1] A2G4^F2 | 
[V:2] cBAGA4 | 
[V:3] z8 | 
[V:4] z8 | 
[V:1] G8 | 
[V:2] G8 | 
[V:3] G4d4- | 
[V:4] z4G,,4 | 
[V:1] z8 | 
[V:2] z8 | 
[V:3] d2c2B2A2 | 
[V:4] D,6C,2 | 
[V:1] z8 | 
[V:2] z8 | 
[V:3] B2c2d3c | 
[V:4] B,,2A,,2B,,2C,2 | 
[V:1] z8 | 
[V:2] z8 | 
[V:3] A2B3AcB | 
[V:4] D,3_E,D,2C,2- | 
[V:1] z8 | 
[V:2] z8 | 
[V:3] AGG4^F2 | 
[V:4] C,B,,A,,G,,A,,4 | 
[V:1] z4B4- | 
[V:2] z4g4- | 
[V:3] G4d4- | 
[V:4] G,,8 | 
[V:1] B2B2B4 | 
[V:2] g2g2g4 | 
[V:3] d2d2d4- | 
[V:4] G,6G,2 | 
[V:1] A4B4 | 
[V:2] f4g4- | 
[V:3] d4d4 | 
[V:4] D,4G,4 | 
[V:1] c6BA | 
[V:2] g4g4 | 
[V:3] _e4_e4 | 
[V:4] C,8 | 
[V:1] B6A2- | 
[V:2] g4f4 | 
[V:3] d4d2c2- | 
[V:4] G,3A,B,2F,2 | 
[V:1] A2G4^F2 | 
[V:2] d8 | 
[V:3] c2B2A4 | 
[V:4] G,4D,4 | 
[V:1] G8 | 
[V:2] z4g4 | 
[V:3] G8 | 
[V:4] G,,8 | 
[V:1] z4d4 | 
[V:2] g2g4g2 | 
[V:3] z8 | 
[V:4] G,4G,2G,2- | 
[V:1] d2d4d2 | 
[V:2] g2g2g3f/e/ | 
[V:3] d4d2d2- | 
[V:4] G,2G,2G,2G,2 | 
[V:1] d2d2d3c/B/ | 
[V:2] d4z2d2 | 
[V:3] d2d2d2d2 | 
[V:4] G,3F,/E,/D,4 | 
[V:1] A2A2c3B | 
[V:2] f4f3g | 
[V:3] d3c/B/A4 | 
[V:4] z8 | 
[V:1] A2G2F4 | 
[V:2] f2e2d2c2 | 
[V:3] z8 | 
[V:4] z8 | 
[V:1] G4A4 | 
[V:2] B4A4 | 
[V:3] z4c3d | 
[V:4] z8 | 
[V:1] z8 | 
[V:2] z8 | 
[V:3] c2B2A2G2 | 
[V:4] F,3G,F,2E,2 | 
[V:1] z8 | 
[V:2] z8 | 
[V:3] F4G4 | 
[V:4] D,2C,2B,,4 | 
[V:1] A3BcBAG | 
[V:2] c8 | 
[V:3] A8 | 
[V:4] A,,8 | 
[V:1] F4G4 | 
[V:2] d2A2B4 | 
[V:3] z8 | 
[V:4] z8 | 
[V:1] A4A3B | 
[V:2] A8 | 
[V:3] c8 | 
[V:4] z2F,3G,A,2- | 
[V:1] c4A3B | 
[V:2] z4z2c2 | 
[V:3] A3Bc2A2- | 
[V:4] A,2F,G,A,2F,2- | 
[V:1] c2ABc2AB | 
[V:2] c3de2f2- | 
[V:3] ABc2ABc2- | 
[V:4] F,G,A,4F,2- | 
[V:1] cde2ed2^c | 
[V:2] f2g2fde2 | 
[V:3] c2c2A4 | 
[V:4] F,E,C,2D,2A,,2 | 
[V:1] d6B2 | 
[V:2] d8- | 
[V:3] z2F4G2 | 
[V:4] z2B,,4G,,2 | 
[V:1] B4z2B2 | 
[V:2] d8 | 
[V:3] G6AB | 
[V:4] G,,8 | 
[V:1] A2G4^F2 | 
[V:2] z8 | 
[V:3] cBAGA4 | 
[V:4] z8 | 
[V:1] G8 | 
[V:2] z2B2B3c | 
[V:3] G8 | 
[V:4] G,,3A,,B,,2G,,2 | 
[V:1] z4z2G2- | 
[V:2] d2B2_e4 | 
[V:3] z4G3A | 
[V:4] G,4C,4 | 
[V:1] GAB2G2c2- | 
[V:2] d4z2c2- | 
[V:3] B2G2c3B | 
[V:4] z4C,4 | 
[V:1] cBA4A2- | 
[V:2] c2f4f2 | 
[V:3] A4A3B | 
[V:4] C,2D,3E,F,G, | 
[V:1] ABc2A2d2- | 
[V:2] e2c2f3e | 
[V:3] c2A2d4 | 
[V:4] A,4z2D,2 | 
[V:1] d2D3EF2 | 
[V:2] d4z4 | 
[V:3] A8 | 
[V:4] D,3E,F,2D,2 | 
[V:1] D2G4E2- | 
[V:2] z2G2G3A | 
[V:3] z8 | 
[V:4] G,4E,3F, | 
[V:1] EFG2E2A2- | 
[V:2] B2G2c3B | 
[V:3] z8 | 
[V:4] G,2E,2A,4- | 
[V:1] A2F2F3G | 
[V:2] A8 | 
[V:3] z2F3GA2 | 
[V:4] A,2D,2D,4 | 
[V:1] A2F2B3A | 
[V:2] z4d4 | 
[V:3] F2B3AG2- | 
[V:4] z4G,4 | 
[V:1] G4G2c2- | 
[V:2] e4e4 | 
[V:3] G2G2c3B | 
[V:4] C,8 | 
[V:1] cBA2d3c | 
[V:2] f8 | 
[V:3] A2d3cBA | 
[V:4] F,3E,D,4 | 
[V:1] BAc3BAG | 
[V:2] g8 | 
[V:3] G8 | 
[V:4] _E,2C,2E,4 | 
[V:1] F3GABA2- | 
[V:2] z2f2f3g | 
[V:3] AGABcdc2- | 
[V:4] D,2F,3B,,F,E, | 
[V:1] AGG4^F2 | 
[V:2] f2e2d4 | 
[V:3] cdB2A4 | 
[V:4] F,D,G,2D,4 | 
[V:1] G8 |]  
[V:2] dcBAB4 |]  
[V:3] G8 |]  
[V:4] G,,8 |]  



